X:1703
T:Captain MacBean's Reel
P:Captain MacBean's Reel
C:Traditional?
R:Reel (8x32)
B:RSCDS 17-3
Z:Anselm Lingnau <anselm@strathspey.org>
M:2/2
L:1/8
K:Gm
d|"Gm"Bc/d/Gd BGdB|"F"AB/c/Fc AFcA|"Gm"Bc/d/Gd BGdB|"D7"A/B/cD^F "Gm"G2 Gd|
  "Gm"Bc/d/Gd BGdB|"F"AB/c/Fc AFcA|"Gm"Bc/d/Gd BGdB|"D7"A/B/cD^F "Gm"G2 G||
A|"Bb"B3f dBfd|"F"cdcB ABcA|"Gm"Ggga bag^f|"D7"g/a/ba^f "Gm"g2 ga|
  "Bb"b2fd Bdfd|"F"cdcB ABcA|"G"Gg"D7"^fa "Gm"gd"Cm"ce|"Gm"dB"D7"cA "Gm"G2 G|]

